dist/img/sprites/logo.svg

<svg width="180" height="40" viewBox="0 0 180 40" fill="none" xmlns="http://www.w3.org/2000/svg">
<path d="M26.4078 5.09863V27.9094C26.4078 30.726 24.1258 33.008 21.3091 33.008H6.8323V26.4055H18.0033C18.9999 26.4055 19.8053 25.5978 19.8053 24.6036V8.40444C19.8053 7.40792 18.9976 6.60251 18.0033 6.60251H0V0H21.3069C24.1235 0 26.4055 2.28198 26.4055 5.09863H26.4078Z" fill="url(#paint0_linear_1931_9962)"/>
<path d="M13.4323 13.2051H6.83203V19.8053H13.4323V13.2051Z" fill="url(#paint1_linear_1931_9962)"/>
<path d="M6.83217 33.0078H0.231934V39.6103H6.83217V33.0078Z" fill="url(#paint2_linear_1931_9962)"/>
<path d="M41.4105 27.653V11.959H47.5307C48.9049 11.959 50.0788 12.1751 51.0503 12.6097C52.0218 13.0442 52.7681 13.6722 53.2936 14.4935C53.8169 15.3148 54.0786 16.2954 54.0786 17.4307C54.0786 18.566 53.8169 19.5421 53.2936 20.3566C52.7704 21.1711 52.0218 21.7991 51.0503 22.2404C50.0788 22.6818 48.9049 22.9025 47.5307 22.9025H42.6436L43.6515 21.8491V27.6553H41.4082L41.4105 27.653ZM43.6538 22.0698L42.6459 20.9481H47.467C48.9026 20.9481 49.9901 20.641 50.7295 20.029C51.469 19.417 51.8398 18.5501 51.8398 17.4285C51.8398 16.3068 51.469 15.44 50.7295 14.828C49.9901 14.2159 48.9026 13.9088 47.467 13.9088H42.6459L43.6538 12.7871V22.0698Z" fill="black"/>
<path d="M54.2129 27.653L61.3205 11.959H63.541L70.6714 27.653H68.3166L61.9712 13.2126H62.8676L56.5222 27.653H54.2129ZM57.2389 23.7284L57.8441 21.9356H66.6785L67.3292 23.7284H57.2389Z" fill="black"/>
<path d="M73.0029 27.653V11.959H79.1231C80.4973 11.959 81.6713 12.1751 82.6428 12.6097C83.6143 13.0442 84.3605 13.6722 84.8838 14.4935C85.4071 15.3148 85.6687 16.2954 85.6687 17.4307C85.6687 18.566 85.4071 19.5421 84.8838 20.3566C84.3605 21.1711 83.6143 21.7945 82.6428 22.2291C81.6713 22.6636 80.4973 22.8798 79.1231 22.8798H74.2361L75.244 21.8491V27.6553H73.0029V27.653ZM75.244 22.0698L74.2361 20.9709H79.0571C80.4928 20.9709 81.5803 20.6615 82.3197 20.0403C83.0591 19.4192 83.43 18.5501 83.43 17.4285C83.43 16.3068 83.0591 15.44 82.3197 14.828C81.5803 14.2159 80.4928 13.9088 79.0571 13.9088H74.2361L75.244 12.7871V22.0698ZM83.496 27.653L79.5053 21.9583H81.9034L85.9395 27.653H83.496Z" fill="black"/>
<path d="M92.1933 27.653V13.9088H86.8125V11.959H99.7946V13.9088H94.4138V27.653H92.1933Z" fill="black"/>
<path d="M106.612 27.8332C105.415 27.8332 104.273 27.6511 103.181 27.2848C102.089 26.9185 101.231 26.443 100.604 25.8606L101.434 24.111C102.032 24.6343 102.794 25.0688 103.72 25.4124C104.646 25.7559 105.611 25.9288 106.612 25.9288C107.525 25.9288 108.264 25.8242 108.833 25.6149C109.402 25.4056 109.82 25.1189 110.089 24.7526C110.357 24.3863 110.491 23.9722 110.491 23.5081C110.491 22.9689 110.316 22.5366 109.964 22.2067C109.613 21.8791 109.156 21.6129 108.596 21.4104C108.036 21.2079 107.42 21.0327 106.746 20.8825C106.073 20.7324 105.397 20.5572 104.717 20.3547C104.037 20.1522 103.416 19.8951 102.856 19.5811C102.296 19.2672 101.843 18.844 101.5 18.3139C101.156 17.7838 100.983 17.0989 100.983 16.2617C100.983 15.4244 101.197 14.71 101.623 14.0298C102.048 13.3495 102.706 12.8034 103.595 12.3939C104.485 11.9821 105.616 11.7773 106.992 11.7773C107.904 11.7773 108.808 11.8979 109.704 12.1368C110.601 12.3757 111.379 12.7193 112.036 13.1675L111.297 14.9603C110.623 14.5121 109.913 14.1867 109.167 13.9843C108.419 13.7818 107.695 13.6817 106.992 13.6817C106.109 13.6817 105.386 13.7931 104.817 14.0184C104.248 14.2436 103.834 14.5417 103.573 14.9148C103.311 15.2879 103.181 15.7066 103.181 16.1707C103.181 16.7235 103.356 17.1649 103.709 17.4926C104.059 17.8224 104.517 18.0841 105.076 18.2775C105.636 18.4709 106.253 18.6483 106.926 18.8053C107.6 18.9623 108.275 19.1375 108.956 19.3332C109.636 19.5265 110.257 19.7814 110.817 20.0953C111.376 20.4093 111.829 20.8279 112.173 21.3512C112.516 21.8745 112.689 22.548 112.689 23.3693C112.689 24.1906 112.473 24.8982 112.038 25.5785C111.604 26.2587 110.935 26.8048 110.032 27.2143C109.126 27.6261 107.989 27.8309 106.612 27.8309V27.8332Z" fill="black"/>
<path d="M126.567 27.8332C125.371 27.8332 124.228 27.6511 123.136 27.2848C122.044 26.9185 121.187 26.443 120.559 25.8606L121.389 24.111C121.987 24.6343 122.75 25.0688 123.676 25.4124C124.602 25.7559 125.566 25.9288 126.567 25.9288C127.48 25.9288 128.219 25.8242 128.788 25.6149C129.357 25.4056 129.775 25.1189 130.044 24.7526C130.312 24.3863 130.446 23.9722 130.446 23.5081C130.446 22.9689 130.271 22.5366 129.919 22.2067C129.568 21.8791 129.111 21.6129 128.551 21.4104C127.992 21.2079 127.375 21.0327 126.702 20.8825C126.028 20.7324 125.352 20.5572 124.672 20.3547C123.992 20.1522 123.371 19.8951 122.811 19.5811C122.251 19.2672 121.799 18.844 121.455 18.3139C121.111 17.7838 120.939 17.0989 120.939 16.2617C120.939 15.4244 121.152 14.71 121.578 14.0298C122.003 13.3495 122.661 12.8034 123.55 12.3939C124.44 11.9821 125.571 11.7773 126.947 11.7773C127.86 11.7773 128.763 11.8979 129.659 12.1368C130.556 12.3757 131.334 12.7193 131.991 13.1675L131.252 14.9603C130.578 14.5121 129.869 14.1867 129.122 13.9843C128.374 13.7818 127.65 13.6817 126.947 13.6817C126.064 13.6817 125.341 13.7931 124.772 14.0184C124.203 14.2436 123.789 14.5417 123.528 14.9148C123.266 15.2879 123.136 15.7066 123.136 16.1707C123.136 16.7235 123.312 17.1649 123.664 17.4926C124.015 17.8224 124.472 18.0841 125.032 18.2775C125.591 18.4709 126.208 18.6483 126.881 18.8053C127.555 18.9623 128.23 19.1375 128.911 19.3332C129.591 19.5265 130.212 19.7814 130.772 20.0953C131.331 20.4093 131.784 20.8279 132.128 21.3512C132.471 21.8745 132.644 22.548 132.644 23.3693C132.644 24.1906 132.428 24.8982 131.994 25.5785C131.559 26.2587 130.89 26.8048 129.987 27.2143C129.081 27.6261 127.944 27.8309 126.567 27.8309V27.8332Z" fill="black"/>
<path d="M142.856 27.8309C141.659 27.8309 140.549 27.6284 139.527 27.2257C138.503 26.823 137.618 26.2587 136.87 25.533C136.121 24.8072 135.539 23.9608 135.12 22.9871C134.702 22.0156 134.492 20.9553 134.492 19.8041C134.492 18.6529 134.702 17.5927 135.12 16.6212C135.539 15.6497 136.121 14.801 136.87 14.0753C137.616 13.3495 138.499 12.7852 139.516 12.3825C140.533 11.9798 141.645 11.7773 142.856 11.7773C144.066 11.7773 145.158 11.9753 146.175 12.3712C147.192 12.767 148.073 13.329 148.821 14.0525C149.567 14.7783 150.148 15.6292 150.559 16.6075C150.971 17.5858 151.176 18.6529 151.176 19.8018C151.176 20.9508 150.971 22.036 150.559 23.0075C150.148 23.979 149.57 24.8277 148.821 25.5534C148.073 26.2792 147.192 26.8389 146.175 27.2348C145.158 27.6307 144.052 27.8286 142.856 27.8286V27.8309ZM142.833 25.8356C143.716 25.8356 144.526 25.6854 145.265 25.3874C146.005 25.0893 146.648 24.6661 147.194 24.1201C147.74 23.574 148.166 22.9347 148.473 22.2021C148.78 21.4695 148.933 20.6709 148.933 19.8041C148.933 18.9373 148.78 18.141 148.473 17.4152C148.166 16.6894 147.74 16.0524 147.194 15.4972C146.648 14.9444 146.007 14.5189 145.265 14.2186C144.526 13.9205 143.713 13.7704 142.833 13.7704C141.952 13.7704 141.163 13.9205 140.424 14.2186C139.684 14.5189 139.038 14.9444 138.483 15.4972C137.93 16.0501 137.5 16.6894 137.193 17.4152C136.886 18.141 136.733 18.9373 136.733 19.8041C136.733 20.6709 136.886 21.4718 137.193 22.2021C137.5 22.9347 137.93 23.574 138.483 24.1201C139.036 24.6661 139.682 25.087 140.424 25.3874C141.163 25.6877 141.966 25.8356 142.833 25.8356Z" fill="black"/>
<path d="M156.992 27.653H154.749V11.959H165.825V13.9088H156.99V27.653H156.992ZM156.767 19.3806H164.862V21.3099H156.767V19.3806Z" fill="black"/>
<path d="M172.216 27.653V13.9088H166.835V11.959H179.817V13.9088H174.436V27.653H172.216Z" fill="black"/>
<defs>
<linearGradient id="paint0_linear_1931_9962" x1="0.225241" y1="-6.37045" x2="32.4142" y2="42.0359" gradientUnits="userSpaceOnUse">
<stop stop-color="#AACC19"/>
<stop offset="1" stop-color="#4B8125"/>
</linearGradient>
<linearGradient id="paint1_linear_1931_9962" x1="-3.45396" y1="-3.92461" x2="28.735" y2="44.4817" gradientUnits="userSpaceOnUse">
<stop stop-color="#AACC19"/>
<stop offset="1" stop-color="#4B8125"/>
</linearGradient>
<linearGradient id="paint2_linear_1931_9962" x1="-17.1617" y1="5.18948" x2="15.0272" y2="53.5957" gradientUnits="userSpaceOnUse">
<stop stop-color="#AACC19"/>
<stop offset="1" stop-color="#4B8125"/>
</linearGradient>
</defs>
</svg>

<svg width="180" height="40" viewBox="0 0 180 40" fill="none" xmlns="http://www.w3.org/2000/svg"><path d="M26.408 5.099v22.81a5.098 5.098 0 01-5.099 5.099H6.832v-6.603h11.171a1.8 1.8 0 001.802-1.801v-16.2a1.8 1.8 0 00-1.802-1.801H0V0h21.307a5.098 5.098 0 015.099 5.099h.002z" fill="url(#paint0_linear_1931_9962)"/><path d="M13.432 13.205h-6.6v6.6h6.6v-6.6z" fill="url(#paint1_linear_1931_9962)"/><path d="M6.832 33.008h-6.6v6.602h6.6v-6.602z" fill="url(#paint2_linear_1931_9962)"/><path d="M41.41 27.653V11.959h6.12c1.375 0 2.549.216 3.52.65.972.435 1.718 1.063 2.244 1.884.523.822.785 1.802.785 2.938 0 1.135-.262 2.111-.785 2.926-.524.814-1.272 1.442-2.244 1.883-.971.442-2.145.663-3.52.663h-4.886l1.008-1.054v5.806h-2.244l.002-.002zm2.244-5.583l-1.008-1.122h4.821c1.436 0 2.523-.307 3.263-.919.739-.612 1.11-1.479 1.11-2.6 0-1.122-.371-1.989-1.11-2.601-.74-.612-1.827-.92-3.263-.92h-4.821l1.008-1.12v9.282zm10.559 5.583l7.108-15.694h2.22l7.13 15.694h-2.354l-6.346-14.44h.897l-6.346 14.44h-2.31zm3.026-3.925l.605-1.792h8.834l.651 1.792H57.24zm15.764 3.925V11.959h6.12c1.374 0 2.548.216 3.52.65.971.435 1.718 1.063 2.24 1.884.524.822.786 1.802.786 2.938 0 1.135-.262 2.111-.785 2.926-.523.814-1.27 1.438-2.241 1.872-.972.435-2.146.65-3.52.65h-4.887l1.008-1.03v5.806h-2.241v-.002zm2.241-5.583l-1.008-1.1h4.821c1.436 0 2.523-.308 3.263-.93.74-.62 1.11-1.49 1.11-2.611 0-1.122-.37-1.989-1.11-2.601-.74-.612-1.827-.92-3.263-.92h-4.82l1.007-1.12v9.282zm8.252 5.583l-3.99-5.695h2.397l4.036 5.695h-2.443zm8.697 0V13.909h-5.38v-1.95h12.982v1.95h-5.381v13.744h-2.22zm14.419.18c-1.197 0-2.339-.182-3.431-.548-1.092-.366-1.95-.842-2.577-1.424l.83-1.75c.598.523 1.36.958 2.286 1.301a8.254 8.254 0 002.892.517c.913 0 1.652-.105 2.221-.314.569-.21.987-.496 1.256-.862.268-.367.402-.78.402-1.245 0-.54-.175-.971-.527-1.301-.351-.328-.808-.594-1.368-.797a15.118 15.118 0 00-1.85-.527 29.939 29.939 0 01-2.029-.528 9.108 9.108 0 01-1.861-.774 3.808 3.808 0 01-1.356-1.267c-.344-.53-.517-1.215-.517-2.052 0-.838.214-1.552.64-2.232.425-.68 1.083-1.227 1.972-1.636.89-.412 2.021-.617 3.397-.617.912 0 1.816.12 2.712.36.897.239 1.675.582 2.332 1.03l-.739 1.793a7.266 7.266 0 00-2.13-.976 8.301 8.301 0 00-2.175-.302c-.883 0-1.606.111-2.175.336-.569.226-.983.524-1.244.897a2.133 2.133 0 00-.392 1.256c0 .553.175.994.528 1.322.35.33.808.591 1.367.785.56.193 1.177.37 1.85.527.674.157 1.349.332 2.03.528.68.194 1.301.448 1.861.762a3.856 3.856 0 011.356 1.256c.343.524.516 1.197.516 2.018 0 .822-.216 1.53-.651 2.21-.434.68-1.103 1.226-2.006 1.635-.906.412-2.043.617-3.42.617v.002zm19.955 0a10.72 10.72 0 01-3.431-.548c-1.092-.366-1.949-.842-2.577-1.424l.83-1.75c.598.523 1.361.958 2.287 1.301.926.344 1.89.517 2.891.517.913 0 1.652-.105 2.221-.314.569-.21.987-.496 1.256-.862.268-.367.402-.78.402-1.245 0-.54-.175-.971-.527-1.301-.351-.328-.808-.594-1.368-.797a15.1 15.1 0 00-1.849-.527 30.05 30.05 0 01-2.03-.528 9.108 9.108 0 01-1.861-.774 3.816 3.816 0 01-1.356-1.267c-.344-.53-.516-1.215-.516-2.052 0-.838.213-1.552.639-2.232.425-.68 1.083-1.227 1.972-1.636.89-.412 2.021-.617 3.397-.617.913 0 1.816.12 2.712.36.897.239 1.675.582 2.332 1.03l-.739 1.793a7.254 7.254 0 00-2.13-.976 8.301 8.301 0 00-2.175-.302c-.883 0-1.606.111-2.175.336-.569.226-.983.524-1.244.897a2.133 2.133 0 00-.392 1.256c0 .553.176.994.528 1.322.351.33.808.591 1.368.785.559.193 1.176.37 1.849.527.674.157 1.349.332 2.03.528.68.194 1.301.448 1.861.762a3.856 3.856 0 011.356 1.256c.343.524.516 1.197.516 2.018a3.96 3.96 0 01-.65 2.21c-.435.68-1.104 1.226-2.007 1.635-.906.412-2.043.617-3.42.617v.002zm16.289-.003c-1.197 0-2.307-.202-3.329-.604a7.94 7.94 0 01-2.657-1.693 7.792 7.792 0 01-1.75-2.546c-.418-.971-.628-2.032-.628-3.183 0-1.151.21-2.211.628-3.183a7.814 7.814 0 011.75-2.546 7.941 7.941 0 012.646-1.692c1.017-.403 2.129-.606 3.34-.606 1.21 0 2.302.198 3.319.594a7.862 7.862 0 012.646 1.681 7.675 7.675 0 011.738 2.556c.412.978.617 2.045.617 3.194s-.205 2.234-.617 3.206a7.66 7.66 0 01-1.738 2.545 7.828 7.828 0 01-2.646 1.682c-1.017.396-2.123.594-3.319.594v.002zm-.023-1.994c.883 0 1.693-.15 2.432-.449a5.719 5.719 0 001.929-1.267 5.916 5.916 0 001.279-1.918 6.14 6.14 0 00.46-2.398c0-.867-.153-1.663-.46-2.389a6.091 6.091 0 00-1.279-1.918 5.66 5.66 0 00-1.929-1.278 6.452 6.452 0 00-2.432-.449c-.881 0-1.67.15-2.409.449a5.81 5.81 0 00-1.941 1.278 5.98 5.98 0 00-1.29 1.918c-.307.726-.46 1.522-.46 2.39 0 .866.153 1.667.46 2.397a5.836 5.836 0 001.29 1.918 5.855 5.855 0 001.941 1.267c.739.3 1.542.449 2.409.449zm14.159 1.817h-2.243V11.959h11.076v1.95h-8.835v13.744h.002zm-.225-8.272h8.095v1.929h-8.095v-1.93zm15.449 8.272V13.909h-5.381v-1.95h12.982v1.95h-5.381v13.744h-2.22z" fill="#000"/><defs><linearGradient id="paint0_linear_1931_9962" x1=".225" y1="-6.37" x2="32.414" y2="42.036" gradientUnits="userSpaceOnUse"><stop stop-color="#AACC19"/><stop offset="1" stop-color="#4B8125"/></linearGradient><linearGradient id="paint1_linear_1931_9962" x1="-3.454" y1="-3.925" x2="28.735" y2="44.482" gradientUnits="userSpaceOnUse"><stop stop-color="#AACC19"/><stop offset="1" stop-color="#4B8125"/></linearGradient><linearGradient id="paint2_linear_1931_9962" x1="-17.162" y1="5.189" x2="15.027" y2="53.596" gradientUnits="userSpaceOnUse"><stop stop-color="#AACC19"/><stop offset="1" stop-color="#4B8125"/></linearGradient></defs></svg>
